X: 38841
T: Summerhill, The
R: hornpipe
M: 4/4
K: Gmajor
|:zD|G2 GA BGAB|c2 cd edef|g2 gf edcB|A2 AG FA D2|
G2 GA BGAB|c2 cd edef|g2 gf edcB|AGFA G2:|
|:FE|D2 DE FDEF|G2 GA BGAB|c2 cd ec A2|d2 de fdef|
g2 gf edcB|A2 AG FA D2|GABc AFDF|GAAF G2:|

